X:16706
T:The Five Roads
C: Chris Langan.
A:Ireland
D: Nightingale - the Coming Dawn 
M: C|
L: 1/8
Q:1/4=100
K:Em
GA |: "Em"B2-B G EFGA | "G"BGGF G2 gf| "Em"efge dBAG | EAAG "D"A2GA |
"Em"B2-B G EFGA | "G"BABd efge | "D"dcBA "G"Gd c/B/A |1 "Em"GEED E2 GA :|2 "Em"GEED E2 ef |:
"G"g2-ge defg |  "D"add^c d2ef | "G"gage "D"dega| "G"baag "D"a2ga |
"G"b2gb "Am"a2gf | "Em"edef "G"g2fe | "D"dcBA "G"Gd c/B/A |1 "Em"GEED E2 ef :|2 "Em"GEED E2 z2 |
